X:1
T: Lady Kinloch of Gilmerton's Strathspey
C:
R:Strathspey
Q: 128
K:D
M:4/4
L:1/16
|:DD3 F3A d3c d3e|f3d f3b a3f e3d|Bd3 Ad3 Gd3 Fd3|Ee3 e3d ce3 c2A2|
DD3 F3A d3c d3e|f3d f3b a3f e3d|Bd3 Ad3 Gd3 Fd3|B3e d3c d4 D4|
f4 f2b2 fd3 c3B|e4 e2a2 ec3 B3A|^Ge3 Ae3 Be3 Be3|df3 e3^G A3=G F3E|
DD3 F3A d3c d3f|e3d e3f e3c B3A|Bd3 Ad3 Gd3 Fd3|Be3 d3c d4 D4:|
